images/3234147.svg

<?xml version="1.0" encoding="UTF-8"?>
<svg xmlns="http://www.w3.org/2000/svg" xmlns:xlink="http://www.w3.org/1999/xlink" width="300pt" height="300pt" viewBox="0 0 300 300" version="1.1">
<defs>
<g>
<symbol overflow="visible" id="glyph0-0">
<path style="stroke:none;" d="M 0.453125 1.59375 L 0.453125 -6.34375 L 4.953125 -6.34375 L 4.953125 1.59375 Z M 0.953125 1.09375 L 4.453125 1.09375 L 4.453125 -5.84375 L 0.953125 -5.84375 Z M 0.953125 1.09375 "/>
</symbol>
<symbol overflow="visible" id="glyph0-1">
<path style="stroke:none;" d="M 3.546875 -5.953125 C 2.898438 -5.953125 2.382812 -5.710938 2 -5.234375 C 1.625 -4.753906 1.4375 -4.101562 1.4375 -3.28125 C 1.4375 -2.445312 1.625 -1.789062 2 -1.3125 C 2.382812 -0.832031 2.898438 -0.59375 3.546875 -0.59375 C 4.191406 -0.59375 4.703125 -0.832031 5.078125 -1.3125 C 5.453125 -1.789062 5.640625 -2.445312 5.640625 -3.28125 C 5.640625 -4.101562 5.453125 -4.753906 5.078125 -5.234375 C 4.703125 -5.710938 4.191406 -5.953125 3.546875 -5.953125 Z M 3.546875 -6.6875 C 4.460938 -6.6875 5.195312 -6.375 5.75 -5.75 C 6.300781 -5.132812 6.578125 -4.3125 6.578125 -3.28125 C 6.578125 -2.238281 6.300781 -1.410156 5.75 -0.796875 C 5.195312 -0.179688 4.460938 0.125 3.546875 0.125 C 2.617188 0.125 1.878906 -0.179688 1.328125 -0.796875 C 0.773438 -1.410156 0.5 -2.238281 0.5 -3.28125 C 0.5 -4.3125 0.773438 -5.132812 1.328125 -5.75 C 1.878906 -6.375 2.617188 -6.6875 3.546875 -6.6875 Z M 3.546875 -6.6875 "/>
</symbol>
<symbol overflow="visible" id="glyph0-2">
<path style="stroke:none;" d="M 0.890625 -6.5625 L 2.078125 -6.5625 L 4.984375 -1.078125 L 4.984375 -6.5625 L 5.84375 -6.5625 L 5.84375 0 L 4.65625 0 L 1.75 -5.484375 L 1.75 0 L 0.890625 0 Z M 0.890625 -6.5625 "/>
</symbol>
<symbol overflow="visible" id="glyph0-3">
<path style="stroke:none;" d="M 5.796875 -6.0625 L 5.796875 -5.125 C 5.492188 -5.394531 5.171875 -5.597656 4.828125 -5.734375 C 4.492188 -5.878906 4.140625 -5.953125 3.765625 -5.953125 C 3.015625 -5.953125 2.4375 -5.722656 2.03125 -5.265625 C 1.632812 -4.804688 1.4375 -4.144531 1.4375 -3.28125 C 1.4375 -2.414062 1.632812 -1.753906 2.03125 -1.296875 C 2.4375 -0.835938 3.015625 -0.609375 3.765625 -0.609375 C 4.140625 -0.609375 4.492188 -0.675781 4.828125 -0.8125 C 5.171875 -0.945312 5.492188 -1.15625 5.796875 -1.4375 L 5.796875 -0.5 C 5.484375 -0.289062 5.15625 -0.132812 4.8125 -0.03125 C 4.46875 0.0703125 4.097656 0.125 3.703125 0.125 C 2.710938 0.125 1.929688 -0.175781 1.359375 -0.78125 C 0.785156 -1.394531 0.5 -2.226562 0.5 -3.28125 C 0.5 -4.332031 0.785156 -5.160156 1.359375 -5.765625 C 1.929688 -6.378906 2.710938 -6.6875 3.703125 -6.6875 C 4.097656 -6.6875 4.46875 -6.632812 4.8125 -6.53125 C 5.164062 -6.425781 5.492188 -6.269531 5.796875 -6.0625 Z M 5.796875 -6.0625 "/>
</symbol>
<symbol overflow="visible" id="glyph0-4">
<path style="stroke:none;" d="M 0.84375 -6.84375 L 1.65625 -6.84375 L 1.65625 0 L 0.84375 0 Z M 0.84375 -6.84375 "/>
</symbol>
</g>
</defs>
<g id="surface50057">
<rect x="0" y="0" width="300" height="300" style="fill:rgb(100%,100%,100%);fill-opacity:1;stroke:none;"/>
<path style="fill:none;stroke-width:1.2;stroke-linecap:butt;stroke-linejoin:miter;stroke:rgb(0%,0%,0%);stroke-opacity:1;stroke-miterlimit:10;" d="M 223.230469 223.964844 L 221.085938 212.253906 "/>
<path style="fill:none;stroke-width:1.2;stroke-linecap:butt;stroke-linejoin:miter;stroke:rgb(100%,0%,0%);stroke-opacity:1;stroke-miterlimit:10;" d="M 221.085938 212.253906 L 218.9375 200.546875 "/>
<path style="fill:none;stroke-width:1.2;stroke-linecap:butt;stroke-linejoin:miter;stroke:rgb(100%,0%,0%);stroke-opacity:1;stroke-miterlimit:10;" d="M 218.9375 200.546875 L 207.726562 196.554688 "/>
<path style="fill:none;stroke-width:1.2;stroke-linecap:butt;stroke-linejoin:miter;stroke:rgb(0%,0%,0%);stroke-opacity:1;stroke-miterlimit:10;" d="M 207.726562 196.554688 L 196.515625 192.558594 "/>
<path style=" stroke:none;fill-rule:nonzero;fill:rgb(100%,100%,100%);fill-opacity:1;" d="M 214.9375 195.046875 L 222.9375 195.046875 L 222.9375 206.046875 L 214.9375 206.046875 Z M 214.9375 195.046875 "/>
<g style="fill:rgb(100%,0%,0%);fill-opacity:1;">
  <use xlink:href="#glyph0-1" x="214.9375" y="203.709961"/>
</g>
<path style="fill:none;stroke-width:1.2;stroke-linecap:butt;stroke-linejoin:miter;stroke:rgb(0%,0%,0%);stroke-opacity:1;stroke-miterlimit:10;" d="M 196.515625 192.558594 L 187.449219 200.269531 "/>
<path style="fill:none;stroke-width:1.2;stroke-linecap:butt;stroke-linejoin:miter;stroke:rgb(0%,0%,100%);stroke-opacity:1;stroke-miterlimit:10;" d="M 187.449219 200.269531 L 178.382812 207.984375 "/>
<path style="fill:none;stroke-width:1.2;stroke-linecap:butt;stroke-linejoin:miter;stroke:rgb(0%,0%,0%);stroke-opacity:1;stroke-miterlimit:10;" d="M 191.070312 189.835938 L 183.820312 196.003906 "/>
<path style="fill:none;stroke-width:1.2;stroke-linecap:butt;stroke-linejoin:miter;stroke:rgb(0%,0%,100%);stroke-opacity:1;stroke-miterlimit:10;" d="M 183.820312 196.003906 L 176.566406 202.175781 "/>
<path style="fill:none;stroke-width:1.2;stroke-linecap:butt;stroke-linejoin:miter;stroke:rgb(0%,0%,100%);stroke-opacity:1;stroke-miterlimit:10;" d="M 192.222656 169.144531 L 194.367188 180.851562 "/>
<path style="fill:none;stroke-width:1.2;stroke-linecap:butt;stroke-linejoin:miter;stroke:rgb(0%,0%,0%);stroke-opacity:1;stroke-miterlimit:10;" d="M 194.367188 180.851562 L 196.515625 192.558594 "/>
<path style="fill:none;stroke-width:1.2;stroke-linecap:butt;stroke-linejoin:miter;stroke:rgb(0%,0%,100%);stroke-opacity:1;stroke-miterlimit:10;" d="M 178.382812 207.984375 L 167.171875 203.988281 "/>
<path style="fill:none;stroke-width:1.2;stroke-linecap:butt;stroke-linejoin:miter;stroke:rgb(0%,0%,0%);stroke-opacity:1;stroke-miterlimit:10;" d="M 167.171875 203.988281 L 155.957031 199.992188 "/>
<path style=" stroke:none;fill-rule:nonzero;fill:rgb(100%,100%,100%);fill-opacity:1;" d="M 175.382812 202.484375 L 182.382812 202.484375 L 182.382812 213.484375 L 175.382812 213.484375 Z M 175.382812 202.484375 "/>
<g style="fill:rgb(0%,0%,100%);fill-opacity:1;">
  <use xlink:href="#glyph0-2" x="175.382812" y="211.147461"/>
</g>
<path style="fill:none;stroke-width:1.2;stroke-linecap:butt;stroke-linejoin:miter;stroke:rgb(0%,0%,0%);stroke-opacity:1;stroke-miterlimit:10;" d="M 155.957031 199.992188 L 151.664062 176.578125 "/>
<path style="fill:none;stroke-width:1.2;stroke-linecap:butt;stroke-linejoin:miter;stroke:rgb(0%,0%,0%);stroke-opacity:1;stroke-miterlimit:10;" d="M 161.039062 196.640625 L 157.605469 177.910156 "/>
<path style="fill:none;stroke-width:1.2;stroke-linecap:butt;stroke-linejoin:miter;stroke:rgb(0%,0%,0%);stroke-opacity:1;stroke-miterlimit:10;" d="M 151.664062 176.578125 L 169.796875 161.152344 "/>
<path style="fill:none;stroke-width:1.2;stroke-linecap:butt;stroke-linejoin:miter;stroke:rgb(0%,0%,100%);stroke-opacity:1;stroke-miterlimit:10;" d="M 129.242188 168.585938 L 140.453125 172.582031 "/>
<path style="fill:none;stroke-width:1.2;stroke-linecap:butt;stroke-linejoin:miter;stroke:rgb(0%,0%,0%);stroke-opacity:1;stroke-miterlimit:10;" d="M 140.453125 172.582031 L 151.664062 176.578125 "/>
<path style="fill:none;stroke-width:1.2;stroke-linecap:butt;stroke-linejoin:miter;stroke:rgb(0%,0%,0%);stroke-opacity:1;stroke-miterlimit:10;" d="M 169.796875 161.152344 L 181.007812 165.148438 "/>
<path style="fill:none;stroke-width:1.2;stroke-linecap:butt;stroke-linejoin:miter;stroke:rgb(0%,0%,100%);stroke-opacity:1;stroke-miterlimit:10;" d="M 181.007812 165.148438 L 192.222656 169.144531 "/>
<path style="fill:none;stroke-width:1.2;stroke-linecap:butt;stroke-linejoin:miter;stroke:rgb(0%,0%,0%);stroke-opacity:1;stroke-miterlimit:10;" d="M 170.160156 167.226562 L 179.128906 170.425781 "/>
<path style="fill:none;stroke-width:1.2;stroke-linecap:butt;stroke-linejoin:miter;stroke:rgb(0%,0%,100%);stroke-opacity:1;stroke-miterlimit:10;" d="M 179.128906 170.425781 L 188.097656 173.621094 "/>
<path style="fill:none;stroke-width:1.2;stroke-linecap:butt;stroke-linejoin:miter;stroke:rgb(0%,0%,0%);stroke-opacity:1;stroke-miterlimit:10;" d="M 169.796875 161.152344 L 167.652344 149.445312 "/>
<path style="fill:none;stroke-width:1.2;stroke-linecap:butt;stroke-linejoin:miter;stroke:rgb(0%,0%,100%);stroke-opacity:1;stroke-miterlimit:10;" d="M 167.652344 149.445312 L 165.503906 137.738281 "/>
<path style=" stroke:none;fill-rule:nonzero;fill:rgb(100%,100%,100%);fill-opacity:1;" d="M 189.222656 163.644531 L 196.222656 163.644531 L 196.222656 174.644531 L 189.222656 174.644531 Z M 189.222656 163.644531 "/>
<g style="fill:rgb(0%,0%,100%);fill-opacity:1;">
  <use xlink:href="#glyph0-2" x="189.222656" y="172.307617"/>
</g>
<path style="fill:none;stroke-width:1.2;stroke-linecap:butt;stroke-linejoin:miter;stroke:rgb(0%,0%,100%);stroke-opacity:1;stroke-miterlimit:10;" d="M 165.503906 137.738281 L 154.292969 133.742188 "/>
<path style="fill:none;stroke-width:1.2;stroke-linecap:butt;stroke-linejoin:miter;stroke:rgb(0%,0%,0%);stroke-opacity:1;stroke-miterlimit:10;" d="M 154.292969 133.742188 L 143.082031 129.746094 "/>
<path style="fill:none;stroke-width:1.2;stroke-linecap:butt;stroke-linejoin:miter;stroke:rgb(0%,0%,100%);stroke-opacity:1;stroke-miterlimit:10;" d="M 165.503906 137.738281 L 174.570312 130.023438 "/>
<path style="fill:none;stroke-width:1.2;stroke-linecap:butt;stroke-linejoin:miter;stroke:rgb(0%,0%,0%);stroke-opacity:1;stroke-miterlimit:10;" d="M 174.570312 130.023438 L 183.636719 122.3125 "/>
<path style=" stroke:none;fill-rule:nonzero;fill:rgb(100%,100%,100%);fill-opacity:1;" d="M 162.503906 132.238281 L 169.503906 132.238281 L 169.503906 143.238281 L 162.503906 143.238281 Z M 162.503906 132.238281 "/>
<g style="fill:rgb(0%,0%,100%);fill-opacity:1;">
  <use xlink:href="#glyph0-2" x="162.503906" y="140.901367"/>
</g>
<path style="fill:none;stroke-width:1.2;stroke-linecap:butt;stroke-linejoin:miter;stroke:rgb(0%,0%,0%);stroke-opacity:1;stroke-miterlimit:10;" d="M 145.835938 129.242188 L 143.6875 117.535156 "/>
<path style="fill:none;stroke-width:1.2;stroke-linecap:butt;stroke-linejoin:miter;stroke:rgb(100%,0%,0%);stroke-opacity:1;stroke-miterlimit:10;" d="M 143.6875 117.535156 L 141.542969 105.828125 "/>
<path style="fill:none;stroke-width:1.2;stroke-linecap:butt;stroke-linejoin:miter;stroke:rgb(0%,0%,0%);stroke-opacity:1;stroke-miterlimit:10;" d="M 140.324219 130.25 L 138.179688 118.542969 "/>
<path style="fill:none;stroke-width:1.2;stroke-linecap:butt;stroke-linejoin:miter;stroke:rgb(100%,0%,0%);stroke-opacity:1;stroke-miterlimit:10;" d="M 138.179688 118.542969 L 136.03125 106.835938 "/>
<path style="fill:none;stroke-width:1.2;stroke-linecap:butt;stroke-linejoin:miter;stroke:rgb(0%,0%,0%);stroke-opacity:1;stroke-miterlimit:10;" d="M 143.082031 129.746094 L 124.949219 145.171875 "/>
<path style=" stroke:none;fill-rule:nonzero;fill:rgb(100%,100%,100%);fill-opacity:1;" d="M 134.789062 100.832031 L 142.789062 100.832031 L 142.789062 111.832031 L 134.789062 111.832031 Z M 134.789062 100.832031 "/>
<g style="fill:rgb(100%,0%,0%);fill-opacity:1;">
  <use xlink:href="#glyph0-1" x="134.789062" y="109.495117"/>
</g>
<path style="fill:none;stroke-width:1.2;stroke-linecap:butt;stroke-linejoin:miter;stroke:rgb(0%,0%,0%);stroke-opacity:1;stroke-miterlimit:10;" d="M 124.949219 145.171875 L 127.09375 156.878906 "/>
<path style="fill:none;stroke-width:1.2;stroke-linecap:butt;stroke-linejoin:miter;stroke:rgb(0%,0%,100%);stroke-opacity:1;stroke-miterlimit:10;" d="M 127.09375 156.878906 L 129.242188 168.585938 "/>
<path style="fill:none;stroke-width:1.2;stroke-linecap:butt;stroke-linejoin:miter;stroke:rgb(0%,0%,0%);stroke-opacity:1;stroke-miterlimit:10;" d="M 130.886719 146.503906 L 132.605469 155.871094 "/>
<path style="fill:none;stroke-width:1.2;stroke-linecap:butt;stroke-linejoin:miter;stroke:rgb(0%,0%,100%);stroke-opacity:1;stroke-miterlimit:10;" d="M 132.605469 155.871094 L 134.320312 165.234375 "/>
<path style="fill:none;stroke-width:1.2;stroke-linecap:butt;stroke-linejoin:miter;stroke:rgb(0%,0%,0%);stroke-opacity:1;stroke-miterlimit:10;" d="M 124.949219 145.171875 L 102.523438 137.183594 "/>
<path style=" stroke:none;fill-rule:nonzero;fill:rgb(100%,100%,100%);fill-opacity:1;" d="M 126.242188 163.085938 L 133.242188 163.085938 L 133.242188 174.085938 L 126.242188 174.085938 Z M 126.242188 163.085938 "/>
<g style="fill:rgb(0%,0%,100%);fill-opacity:1;">
  <use xlink:href="#glyph0-2" x="126.242188" y="171.749023"/>
</g>
<path style="fill:none;stroke-width:1.2;stroke-linecap:butt;stroke-linejoin:miter;stroke:rgb(0%,0%,0%);stroke-opacity:1;stroke-miterlimit:10;" d="M 102.523438 137.183594 L 98.230469 113.765625 "/>
<path style="fill:none;stroke-width:1.2;stroke-linecap:butt;stroke-linejoin:miter;stroke:rgb(0%,0%,0%);stroke-opacity:1;stroke-miterlimit:10;" d="M 96.585938 135.851562 L 93.152344 117.117188 "/>
<path style="fill:none;stroke-width:1.2;stroke-linecap:butt;stroke-linejoin:miter;stroke:rgb(0%,0%,0%);stroke-opacity:1;stroke-miterlimit:10;" d="M 84.390625 152.605469 L 102.523438 137.183594 "/>
<path style="fill:none;stroke-width:1.2;stroke-linecap:butt;stroke-linejoin:miter;stroke:rgb(0%,0%,0%);stroke-opacity:1;stroke-miterlimit:10;" d="M 98.230469 113.765625 L 75.804688 105.777344 "/>
<path style="fill:none;stroke-width:1.2;stroke-linecap:butt;stroke-linejoin:miter;stroke:rgb(0%,0%,0%);stroke-opacity:1;stroke-miterlimit:10;" d="M 75.804688 105.777344 L 57.675781 121.203125 "/>
<path style="fill:none;stroke-width:1.2;stroke-linecap:butt;stroke-linejoin:miter;stroke:rgb(0%,0%,0%);stroke-opacity:1;stroke-miterlimit:10;" d="M 77.621094 111.585938 L 63.117188 123.925781 "/>
<path style="fill:none;stroke-width:1.2;stroke-linecap:butt;stroke-linejoin:miter;stroke:rgb(0%,0%,0%);stroke-opacity:1;stroke-miterlimit:10;" d="M 57.675781 121.203125 L 61.96875 144.617188 "/>
<path style="fill:none;stroke-width:1.2;stroke-linecap:butt;stroke-linejoin:miter;stroke:rgb(0%,0%,0%);stroke-opacity:1;stroke-miterlimit:10;" d="M 57.675781 121.203125 L 46.460938 117.207031 "/>
<path style="fill:none;stroke-width:1.2;stroke-linecap:butt;stroke-linejoin:miter;stroke:rgb(0%,80%,0%);stroke-opacity:1;stroke-miterlimit:10;" d="M 46.460938 117.207031 L 35.25 113.210938 "/>
<path style="fill:none;stroke-width:1.2;stroke-linecap:butt;stroke-linejoin:miter;stroke:rgb(0%,0%,0%);stroke-opacity:1;stroke-miterlimit:10;" d="M 61.96875 144.617188 L 84.390625 152.605469 "/>
<path style="fill:none;stroke-width:1.2;stroke-linecap:butt;stroke-linejoin:miter;stroke:rgb(0%,0%,0%);stroke-opacity:1;stroke-miterlimit:10;" d="M 66.089844 140.140625 L 84.03125 146.53125 "/>
<path style=" stroke:none;fill-rule:nonzero;fill:rgb(100%,100%,100%);fill-opacity:1;" d="M 25.25 107.710938 L 35.25 107.710938 L 35.25 118.710938 L 25.25 118.710938 Z M 25.25 107.710938 "/>
<g style="fill:rgb(0%,80%,0%);fill-opacity:1;">
  <use xlink:href="#glyph0-3" x="25.25" y="116.374023"/>
  <use xlink:href="#glyph0-4" x="31.763672" y="116.374023"/>
</g>
<path style="fill:none;stroke-width:1.2;stroke-linecap:butt;stroke-linejoin:miter;stroke:rgb(0%,0%,0%);stroke-opacity:1;stroke-miterlimit:10;" d="M 183.636719 122.3125 L 206.0625 130.300781 "/>
<path style="fill:none;stroke-width:1.2;stroke-linecap:butt;stroke-linejoin:miter;stroke:rgb(0%,0%,0%);stroke-opacity:1;stroke-miterlimit:10;" d="M 206.0625 130.300781 L 224.195312 114.878906 "/>
<path style="fill:none;stroke-width:1.2;stroke-linecap:butt;stroke-linejoin:miter;stroke:rgb(0%,0%,0%);stroke-opacity:1;stroke-miterlimit:10;" d="M 224.195312 114.878906 L 246.617188 122.867188 "/>
<path style="fill:none;stroke-width:1.2;stroke-linecap:butt;stroke-linejoin:miter;stroke:rgb(0%,0%,0%);stroke-opacity:1;stroke-miterlimit:10;" d="M 228.316406 110.398438 L 246.253906 116.792969 "/>
<path style="fill:none;stroke-width:1.2;stroke-linecap:butt;stroke-linejoin:miter;stroke:rgb(0%,0%,0%);stroke-opacity:1;stroke-miterlimit:10;" d="M 219.902344 91.460938 L 224.195312 114.878906 "/>
<path style="fill:none;stroke-width:1.2;stroke-linecap:butt;stroke-linejoin:miter;stroke:rgb(0%,0%,0%);stroke-opacity:1;stroke-miterlimit:10;" d="M 246.617188 122.867188 L 264.75 107.441406 "/>
<path style="fill:none;stroke-width:1.2;stroke-linecap:butt;stroke-linejoin:miter;stroke:rgb(0%,0%,0%);stroke-opacity:1;stroke-miterlimit:10;" d="M 264.75 107.441406 L 260.457031 84.027344 "/>
<path style="fill:none;stroke-width:1.2;stroke-linecap:butt;stroke-linejoin:miter;stroke:rgb(0%,0%,0%);stroke-opacity:1;stroke-miterlimit:10;" d="M 258.8125 106.109375 L 255.378906 87.378906 "/>
<path style="fill:none;stroke-width:1.2;stroke-linecap:butt;stroke-linejoin:miter;stroke:rgb(0%,0%,0%);stroke-opacity:1;stroke-miterlimit:10;" d="M 260.457031 84.027344 L 238.03125 76.035156 "/>
<path style="fill:none;stroke-width:1.2;stroke-linecap:butt;stroke-linejoin:miter;stroke:rgb(0%,0%,0%);stroke-opacity:1;stroke-miterlimit:10;" d="M 238.03125 76.035156 L 219.902344 91.460938 "/>
<path style="fill:none;stroke-width:1.2;stroke-linecap:butt;stroke-linejoin:miter;stroke:rgb(0%,0%,0%);stroke-opacity:1;stroke-miterlimit:10;" d="M 239.847656 81.84375 L 225.34375 94.183594 "/>
</g>
</svg>

<svg xmlns="http://www.w3.org/2000/svg" xmlns:xlink="http://www.w3.org/1999/xlink" width="300pt" height="300pt" viewBox="0 0 300 300"><defs><symbol overflow="visible"><path d="M.453 1.594v-7.938h4.5v7.938zm.5-.5h3.5v-6.938h-3.5zm0 0"/></symbol><symbol overflow="visible" id="a"><path d="M3.547-5.953c-.65 0-1.164.242-1.547.72-.375.48-.563 1.13-.563 1.952 0 .835.188 1.49.563 1.967.383.48.898.72 1.547.72.644 0 1.156-.24 1.53-.72.376-.476.564-1.132.564-1.968 0-.822-.187-1.474-.562-1.954-.375-.477-.887-.72-1.53-.72zm0-.734c.914 0 1.648.312 2.203.937.55.617.828 1.438.828 2.47 0 1.042-.277 1.87-.828 2.483-.555.617-1.29.922-2.203.922-.93 0-1.668-.305-2.22-.922C.774-1.41.5-2.237.5-3.28c0-1.033.273-1.853.828-2.47.55-.625 1.29-.938 2.22-.938zm0 0"/></symbol><symbol overflow="visible" id="b"><path d="M.89-6.563H2.08l2.906 5.485v-5.484h.86V0H4.656L1.75-5.484V0H.89zm0 0"/></symbol><symbol overflow="visible" id="c"><path d="M5.797-6.063v.938c-.305-.27-.625-.473-.97-.61-.335-.144-.686-.218-1.06-.218-.75 0-1.33.23-1.736.687-.397.46-.592 1.12-.592 1.985 0 .866.195 1.526.593 1.983.408.46.986.688 1.736.688.375 0 .726-.066 1.062-.203.344-.132.664-.343.97-.625V-.5c-.314.21-.642.367-.986.47-.343.1-.714.155-1.11.155-.99 0-1.772-.3-2.343-.906C.784-1.396.5-2.228.5-3.28c0-1.052.285-1.88.86-2.486.57-.613 1.35-.92 2.343-.92.395-.002.766.053 1.11.155.35.104.68.26.984.468zm0 0"/></symbol><symbol overflow="visible" id="d"><path d="M.844-6.844h.812V0H.844zm0 0"/></symbol></defs><g><path fill="#fff" d="M0 0h300v300H0z"/><path d="M223.23 223.965l-2.144-11.71" stroke-width="1.2" stroke="#000" stroke-miterlimit="10" fill="none"/><path d="M221.086 212.254l-2.15-11.707M218.938 200.547l-11.21-3.992" stroke-width="1.2" stroke="#f00" stroke-miterlimit="10" fill="none"/><path d="M207.727 196.555l-11.21-3.996" stroke-width="1.2" stroke="#000" stroke-miterlimit="10" fill="none"/><path d="M214.938 195.047h8v11h-8zm0 0" fill="#fff"/><use xlink:href="#a" x="214.938" y="203.71" fill="#f00"/><path d="M196.516 192.56l-9.067 7.71" stroke-width="1.2" stroke="#000" stroke-miterlimit="10" fill="none"/><path d="M187.45 200.27l-9.067 7.714" stroke-width="1.2" stroke="#00f" stroke-miterlimit="10" fill="none"/><path d="M191.07 189.836l-7.25 6.168" stroke-width="1.2" stroke="#000" stroke-miterlimit="10" fill="none"/><path d="M183.82 196.004l-7.254 6.172M192.223 169.145l2.144 11.707" stroke-width="1.2" stroke="#00f" stroke-miterlimit="10" fill="none"/><path d="M194.367 180.852l2.15 11.707" stroke-width="1.2" stroke="#000" stroke-miterlimit="10" fill="none"/><path d="M178.383 207.984l-11.21-3.996" stroke-width="1.2" stroke="#00f" stroke-miterlimit="10" fill="none"/><path d="M167.172 203.988l-11.215-3.996" stroke-width="1.2" stroke="#000" stroke-miterlimit="10" fill="none"/><path d="M175.383 202.484h7v11h-7zm0 0" fill="#fff"/><use xlink:href="#b" x="175.383" y="211.147" fill="#00f"/><path d="M155.957 199.992l-4.293-23.414M161.04 196.64l-3.435-18.73M151.664 176.578l18.133-15.426" stroke-width="1.2" stroke="#000" stroke-miterlimit="10" fill="none"/><path d="M129.242 168.586l11.21 3.996" stroke-width="1.2" stroke="#00f" stroke-miterlimit="10" fill="none"/><path d="M140.453 172.582l11.21 3.996M169.797 161.152l11.21 3.996" stroke-width="1.2" stroke="#000" stroke-miterlimit="10" fill="none"/><path d="M181.008 165.148l11.215 3.997" stroke-width="1.2" stroke="#00f" stroke-miterlimit="10" fill="none"/><path d="M170.16 167.227l8.97 3.2" stroke-width="1.2" stroke="#000" stroke-miterlimit="10" fill="none"/><path d="M179.13 170.426l8.968 3.195" stroke-width="1.2" stroke="#00f" stroke-miterlimit="10" fill="none"/><path d="M169.797 161.152l-2.145-11.707" stroke-width="1.2" stroke="#000" stroke-miterlimit="10" fill="none"/><path d="M167.652 149.445l-2.148-11.707" stroke-width="1.2" stroke="#00f" stroke-miterlimit="10" fill="none"/><path d="M189.223 163.645h7v11h-7zm0 0" fill="#fff"/><use xlink:href="#b" x="189.223" y="172.308" fill="#00f"/><path d="M165.504 137.738l-11.21-3.996" stroke-width="1.2" stroke="#00f" stroke-miterlimit="10" fill="none"/><path d="M154.293 133.742l-11.21-3.996" stroke-width="1.2" stroke="#000" stroke-miterlimit="10" fill="none"/><path d="M165.504 137.738l9.066-7.715" stroke-width="1.2" stroke="#00f" stroke-miterlimit="10" fill="none"/><path d="M174.57 130.023l9.067-7.71" stroke-width="1.2" stroke="#000" stroke-miterlimit="10" fill="none"/><path d="M162.504 132.238h7v11h-7zm0 0" fill="#fff"/><use xlink:href="#b" x="162.504" y="140.901" fill="#00f"/><path d="M145.836 129.242l-2.15-11.707" stroke-width="1.2" stroke="#000" stroke-miterlimit="10" fill="none"/><path d="M143.688 117.535l-2.145-11.707" stroke-width="1.2" stroke="#f00" stroke-miterlimit="10" fill="none"/><path d="M140.324 130.25l-2.144-11.707" stroke-width="1.2" stroke="#000" stroke-miterlimit="10" fill="none"/><path d="M138.18 118.543l-2.15-11.707" stroke-width="1.2" stroke="#f00" stroke-miterlimit="10" fill="none"/><path d="M143.082 129.746l-18.133 15.426" stroke-width="1.2" stroke="#000" stroke-miterlimit="10" fill="none"/><path d="M134.79 100.832h8v11h-8zm0 0" fill="#fff"/><use xlink:href="#a" x="134.789" y="109.495" fill="#f00"/><path d="M124.95 145.172l2.144 11.707" stroke-width="1.2" stroke="#000" stroke-miterlimit="10" fill="none"/><path d="M127.094 156.88l2.148 11.706" stroke-width="1.2" stroke="#00f" stroke-miterlimit="10" fill="none"/><path d="M130.887 146.504l1.718 9.367" stroke-width="1.2" stroke="#000" stroke-miterlimit="10" fill="none"/><path d="M132.605 155.87l1.715 9.364" stroke-width="1.2" stroke="#00f" stroke-miterlimit="10" fill="none"/><path d="M124.95 145.172l-22.427-7.988" stroke-width="1.2" stroke="#000" stroke-miterlimit="10" fill="none"/><path d="M126.242 163.086h7v11h-7zm0 0" fill="#fff"/><use xlink:href="#b" x="126.242" y="171.749" fill="#00f"/><path d="M102.523 137.184l-4.293-23.418M96.586 135.852l-3.434-18.735M84.39 152.605l18.133-15.42M98.23 113.766l-22.425-7.99M75.805 105.777l-18.13 15.426M77.62 111.586l-14.503 12.34M57.676 121.203l4.293 23.414M57.676 121.203l-11.215-3.996" stroke-width="1.2" stroke="#000" stroke-miterlimit="10" fill="none"/><path d="M46.46 117.207l-11.21-3.996" stroke-width="1.2" stroke="#0c0" stroke-miterlimit="10" fill="none"/><path d="M61.97 144.617l22.42 7.988M66.09 140.14l17.94 6.39" stroke-width="1.2" stroke="#000" stroke-miterlimit="10" fill="none"/><path d="M25.25 107.71h10v11h-10zm0 0" fill="#fff"/><g fill="#0c0"><use xlink:href="#c" x="25.25" y="116.374"/><use xlink:href="#d" x="31.764" y="116.374"/></g><path d="M183.637 122.313l22.425 7.988M206.063 130.3l18.132-15.42M224.195 114.88l22.422 7.987M228.316 110.398l17.938 6.395M219.902 91.46l4.293 23.42M246.617 122.867l18.133-15.426M264.75 107.44l-4.293-23.413M258.813 106.11l-3.434-18.73M260.457 84.027l-22.426-7.992M238.03 76.035L219.903 91.46M239.848 81.844l-14.504 12.34" stroke-width="1.2" stroke="#000" stroke-miterlimit="10" fill="none"/></g></svg>
